X:1
T:Edstaston, 87.87 D
T:Edstaston, 87.87 D
T:Geoffrey Charles Edward Ryley, 1907
T:Public Domain Courtesy of the Cyber Hymnal™
C:Geoffrey Charles Edward Ryley, 1907
Z:Public Domain
Z:Courtesy of the Cyber Hymnal™
%%score ( 1 2 ) ( 3 4 )
L:1/8
Q:1/4=104
M:4/4
K:Eb
V:1 treble 
V:2 treble 
V:3 bass 
V:4 bass 
V:1
 [EG]2 [EG]2 [EG][DF] ([CE][DF]) | [EG]2 [EA]2 [Ac]2 [GB]2 | [Ae]2 [EA]2 [EG]2 [Fc]2 | %3
 [GB]2 ([FA][EG]) [DF]4 | [EG]2 [EG]2 ([EG][DF]) ([CE][DF]) | [EG]2 [EA]2 [Ac]2 [GB]2 | %6
 [F=A]2 [Fe]2 [Fd]2 [FB]2 | [Gc]2 (B=A) [FB]4 | [Fd]2 (cB) [Ee]2 [GB]2 | %9
 [Gd]2 [Gc]2 [GB]2 [^F=A]2 | [GB]2 (=AG) [Cc]2 [CG]2 | [GB]2 ([FA][EG]) F4 | %12
 [EG]2 [EG]2 ([EG][DF]) ([CE][DF]) | [EG]2 [EA]2 [Ac]2 [GB]2 | [Ae]2 [EA]2 [EG]2 [Ec]2 | %15
 [EB]2 (GF) E4 |] %16
V:2
 x8 | x8 | x8 | x8 | x8 | x8 | x8 | x2 F2 x4 | x2 F2 x4 | x8 | x2 D2 x4 | x4 (E2 D2) | x8 | x8 | %14
 x8 | x2 D2 E4 |] %16
V:3
 [E,B,]2 [B,,B,]2 [G,,B,][G,,B,] [B,,B,]2 | [E,B,]2 [E,C]2 [E,D]2 [E,E]2 | %2
 [C,E]2 C2 [B,C]2 [A,D]2 | [G,E]2 [A,C]2 [B,D]4 | [E,B,]2 [B,,B,]2 [G,,B,]2 [B,,B,]2 | %5
 [E,B,]2 [E,C]2 [E,D]2 [E,E]2 | [F,C]2 [=A,,C]2 [B,,D]2 [D,F]2 | [E,E]2 (DC) [B,D]4 | %8
 DB, (CD) [G,E]2 [G,D]2 | [B,,G]2 [C,E]2 [D,D]2 [D,C]2 | (B,G,) (=A,=B,) [E,C]2 [=E,C]2 | %11
 [F,C]2 [A,,C]2 (F,2 B,2) | [E,B,]2 [B,,B,]2 [G,,B,]2 [B,,B,]2 | [E,B,]2 [E,C]2 [E,D]2 [E,E]2 | %14
 [C,E]2 [C,E,]2 [B,,E,]2 [=A,,F,]2 | [B,,G,]2 [B,,A,]2 [E,G,]4 |] %16
V:4
 x8 | x8 | x2 C2 x4 | x8 | x8 | x8 | x8 | x2 F,2 x4 | B,2 A,2 x4 | x8 | G,2 F,2 x4 | x4 B,,4 | x8 | %13
 x8 | x8 | x8 |] %16

